X: 062162
T: Five Mile Bourne
C: Joe Liddy
Z: BB
S: "The Leitrim Fiddler" (Dublin 1981)
L: 1/8
M: 4/4
R: reel
Q: 1/4 = 170
K: D
AF | DEFA BdAd | BdAd BAFE | DEFA BdAB | dBAF E2 FE |
DEFA BdAd | BdAB de f2 | afef dBAF | dBAF D2 :|
FA | d2 fd adfe | fbaf edBc | defd adfe | fbaf e2 Bc |
d2 fd adfe | fbaf ed B2 | afef dBAF | dBAF D2 :|
